X:1
T:Old Yeller Dog Come Trottin' Through the Meetinghouse
L:1/4
M:C|
I:linebreak $
K:G
V:1 treble
V:1
"G" G, B,/D/ G G| B2 B/A/ G |"D" A3/2 G/ A D/E/ |"G" G G  G/E/D/B,/|$
"G" G, B,/D/ G G |B2 B/A/ G |"D"A G/A/ B/G/ A |1 "G"G2 G2 :|2  "G"G2 G |$
 |:d |"G" g2 e2 | d3 (B | B) B B/A/ G | "C"E3 d |$
 "G"g2 e2 | d3/2 G/ e (d | "D"d) e d/B/ A |1"G" G2 G :|2"G" G2 G2 ||
